X:7902
T:Racketty Jack
C:G. Operti
N:Victorian Music Hall Song
Z:Transcribed by Frank Nordberg - http://www.musicaviva.com
F:http://abc.musicaviva.com/tunes/operti-g/operti-racketty-jack.abc
M:6/8
L:1/8
K:D
"^Allegro"A|A2c d2F|EGA B2B|A2G F2E|A3- A2^G|
A2c d2F|EGA B z A|^G2B e2d|c3- c2A|
d2c e2d|c2B B2^A|=A2^A B2G|F3 z2 A|
ABc d2F|E2G B2B|A2G EBA|D3 z2 z|
A2z A2z|A2z A2z|A2z A2A|A2z A2A|
ABc dGF|EGA B2B|ABA GFE|A3- A2A|
ABc dGF|EGA B2B|ABA GFE|D3- D2z|]
W:
W:
W:  From Musica Viva - http://www.musicaviva.com
W:  the Internet center for free sheet music downloads.
